X:1
T:G minor William Billings, 1779
T:Isaac  Watts, 1717 (Psalm 3, Part 1)    86. 86. (C. M.)
T:Nazareth Transcribed from Music In Miniature, 1779.
%%score [ 1 2 3 4 ]
L:1/8
Q:1/4=150
M:3/2
K:Bb
V:1 treble nm="Voice" snm="Tr."
V:2 treble nm="Voice" snm="C."
V:3 treble-8 nm="Tenor" snm="T."
V:4 bass nm="Bass" snm="B."
V:1
 G4 | B8 A4 | A8 A4 | (B2 A2 G2 A2) B4 | d8 d4 | (d4 e4) d4 | (B3 c d4) c4 | A8 A4 | A8 A4 | %9
w: 1.~My|God, how|ma- ny|are~ _ _ _ my|fears! How|fast~ _ my|foes~ _ _ in-|crease! Con-|spi- ring|
w: 2.~The|ly- ing|temp- ter|would~ _ _ _ per-|suade There's|no~ _ re-|lief~ _ _ in|heav'n; And|all my|
 (G3 A B4) G4 | (A4 B2 A2) B4 | d8 B4 | (A3 G A4) A4 | (B4 A2 G2) ^F4 | G12 |] %15
w: my * * e-|ter- * * nal|death, They|break~ _ _ my|pre- * * sent|peace.|
w: swel- * * ling|sins~ _ _ ap-|pear Too|big~ _ _ to|be * * for-|given.|
V:2
 D4 | (D3 C B,4) C4 | (D3 E F4) F4 | (D2 C2 B,2 C2) D4 | F8 F4 | (F4 G4) F4 | G8 F4 | F8 F4 | %8
w: 3.~But|thou,~ _ _ my|glo- * * ry|and~ _ _ _ my|strength, Shalt|on * the|temp- ter|tread, Shalt|
w: 4.~I|cried,~ _ _ and|from~ _ _ his|ho- * * * ly|hill He|bowed * a|lis- tening|ear; I|
 (D6 E2) F4 | G8 D4 | F8 (C2 G2) | F8 D4 | F8 F4 | (F4 E4) D4 | D12 |] %15
w: si- * lence|all my|threat- ening *|guilt, And|raise my|droo- * ping|head.|
w: called * my|Fa- ther|and my *|God, And|he sub-|dued * my|fear.|
V:3
 G4 | d8 c4 | (f3 e d4) c4 | (B2 c2 d2 c2) B4 | A8 A4 | (B3 A G4) B4 | (d3 c B4) c4 | d8 d4 | %8
w: 5.~He|shed soft|slum- * * bers|on~ _ _ _ mine|eyes, In|spite~ _ _ of|all~ _ _ my|foes; I|
w: 6.~What|though the|hosts~ _ _ of|death~ _ _ _ and|hell All|armed~ _ _ a-|gainst~ _ _ me|stood, Ter-|
 (f6 e2) (d2 c2) | (d4 e2 d2) (c2 B2) | (c4 d2 c2) B4 | A8 B4 | (d4 e2 d2) c4 | (d4 c2 B2) A4 | %14
w: woke,~ _ and *|won- * * dered *|at~ _ _ the|grace That|guar- * * ded|my~ _ _ re-|
w: rors~ _ no *|more~ _ _ shall *|shake~ _ _ my|soul; My|re- * * fuge|is~ _ _ my|
 G12 |] %15
w: pose.|
w: God.|
V:4
 G,4 | G,8 F,4 | D,8 F,4 | (G,2 A,2 B,2 A,2) G,4 | D,8 D,4 | (B,,4 C,4) D,4 | G,8 A,4 | D,8 D,4 | %8
w: 7.~A-|rise, O|Lord, ful-|fill~ _ _ _ thy|grace, While|I~ _ thy|glo- ry|sing; My|
w: 8.~Sal-|va- tion|to the|Lord~ _ _ _ be-|longs, His|arm~ _ a-|lone can|save; Bles-|
 D,8 D,4 | G,8 G,4 | F,8 G,4 | D,8 G,4 | D,8 F,4 | (B,,4 C,4) D,4 | G,,12 |] %15
w: God has|broke the|ser- pent's|teeth, And|death has|lost~ _ his|sting.|
w: sings at-|tend thy|peo- ple|here, And|reach be-|yond~ _ the|grave.|

